X:1
T:Partita IV Courante
T:BWV 828
T:J. S. Bach
%%score { ( 1 4 5 ) | ( 2 3 6 ) }
L:1/8
M:3/2
K:D
V:1 treble nm="Harp"
V:4 treble 
V:5 treble 
V:2 bass 
V:3 bass 
V:6 bass 
V:1
 F | [A,DF]3 D/F/ GD/G/ A2 B/A/B c2 | [Ad]4 e2 f2 fgfe | fd/f/gd/g/ a3 B ef/g/fe | %4
 d/4c/4d/4c/4d/4c/4d/4c/4 d/4c/4d/4c/4 A/c/ dA/d/ e2{A} G4- | GF/E/F^A B/4A/4B/- B2 c dc e2 | %6
{e} d3 B/d/ ec/e/ f2 ^g/4f/4g/- g2 a | ^g/4f/4g/4f/4g/4f/4g/4f/4 g/4f/4g/4f/4 e/g/ ae/a/ b2 agfe | %8
 d2 d/4c/4d/4c/4A/c/ dA/d/ e2 f/4e/4f/- f2 g | f3 B c/4B/4A/B e2 ABcA | d6- d4 c2- | %11
 c2 BA/^G/ AB GE/G/ AE/A/ BE/B/ | cE/c/{c} d3 c/B/ cA/c/ dA/d/ eA/d/ | %13
 fA/f/{f} g3 f/e/ fd/f/ ^gd/g/ ad/a/ |{a} b2- b/a/^g/f/ ea- a/g/f/e/ df- f/e/d/c/ | %15
 Bd- d/c/B/A/ ^Ge- eA c2 c/4B/4c/4B/4A/B/ | A6- A4 z F | [A,DF]3 D/F/ GD/G/ A2 B/A/B c2 | %18
 [Ad]4 e2 f2 fgfe | fd/f/gd/g/ a3 B ef/g/fe | %20
 d/4c/4d/4c/4d/4c/4d/4c/4 d/4c/4d/4c/4 A/c/ dA/d/ e2{A} G4- | GF/E/F^A B/4A/4B/- B2 c dc e2 | %22
{e} d3 B/d/ ec/e/ f2 ^g/4f/4g/- g2 a | ^g/4f/4g/4f/4g/4f/4g/4f/4 g/4f/4g/4f/4 e/g/ ae/a/ b2 agfe | %24
 d2 d/4c/4d/4c/4A/c/ dA/d/ e2 f/4e/4f/- f2 g | f3 B c/4B/4A/B e2 ABcA | d6- d4 c2- | %27
 c2 BA/^G/ AB GE/G/ AE/A/ BE/B/ | cE/c/{c} d3 c/B/ cA/c/ dA/d/ eA/d/ | %29
 fA/f/{f} g3 f/e/ fd/f/ ^gd/g/ ad/a/ |{a} b2- b/a/^g/f/ ea- a/g/f/e/ df- f/e/d/c/ | %31
 Bd- d/c/B/A/ ^Ge- eA c2 c/4B/4c/4B/4A/B/ | A6- A4 z e | [ce]3 a/e/ ce/c/ A2{A} B3 c | %34
 d6- df edef | gd/g/ ad/a/ b4 agfe | ^d6 e/4d/4e3/2 e=d=cB | =c/4B/4c/- c2 A/c/ ec/e/ a c2 B2 A | %38
 B/4A/4B/- B2 G/B/ d B/d/g B2 A2 G | A3 F/A/ =cA/c/ f A2 G2 F | G =c2 B ^de A g2 fed | e6 g6- | %42
 g2 fg eg f6- | f2 ef df e6- | eA/d/ fd/f/ a=c- c B2 ^c2 d | %45
 d2 c/B/A/B/ c/B/A/B/ =cf/g/ a/g/f/e/ dc | =c2 B/A/G/A/ B/A/G/A/ Be/f/ g/f/e/d/ ^cB | %47
 B/A/d/e/ f/e/d/c/ BA A/G/c/d/ e/d/c/B/ AG | F3 D/F/ GD/G/ A2{A} B3 =c | B3 E F/4E/4D/E A2 DEFD | %50
 G6- G4 F2- | F2 F/4E/4F/4E/4D/C/ DE CA,/C/ DA,/D/ EA,/E/ | FA,/F/{F} G3 F/E/ FD/F/ GD/G/ AD/A/ | %53
 BE/B/{B} =c3 B/A/ BG/B/ ^cG/c/ dG/d/ | e2- e/d/c/B/ Ad- d/c/B/A/ GB- B/A/G/F/ | %55
 EG- G/F/E/D/ CA- AD F2 F/4E/4F/4E/4D/E/ | D6- D4 z e | [ce]3 a/e/ ce/c/ A2{A} B3 c | d6- df edef | %59
 gd/g/ ad/a/ b4 agfe | ^d6 e/4d/4e3/2 e=d=cB | =c/4B/4c/- c2 A/c/ ec/e/ a c2 B2 A | %62
 B/4A/4B/- B2 G/B/ d B/d/g B2 A2 G | A3 F/A/ =cA/c/ f A2 G2 F | G =c2 B ^de A g2 fed | e6 g6- | %66
 g2 fg eg f6- | f2 ef df e6- | eA/d/ fd/f/ a=c- c B2 ^c2 d | %69
 d2 c/B/A/B/ c/B/A/B/ =cf/g/ a/g/f/e/ dc | =c2 B/A/G/A/ B/A/G/A/ Be/f/ g/f/e/d/ ^cB | %71
 B/A/d/e/ f/e/d/c/ BA A/G/c/d/ e/d/c/B/ AG | F3 D/F/ GD/G/ A2{A} B3 =c | B3 E F/4E/4D/E A2 DEFD | %74
 G6- G4 F2- | F2 F/4E/4F/4E/4D/C/ DE CA,/C/ DA,/D/ EA,/E/ | FA,/F/{F} G3 F/E/ FD/F/ GD/G/ AD/A/ | %77
 BE/B/{B} =c3 B/A/ BG/B/ ^cG/c/ dG/d/ | e2- e/d/c/B/ Ad- d/c/B/A/ GB- B/A/G/F/ | %79
 EG- G/F/E/D/ CA- AD F2 F/4E/4F/4E/4D/E/ | D6- D4 z2 |] %81
V:2
 z | z2 D,2 E,2 F,2 G,2 E,2 | [D,F,]3 D,/F,/ G,D,/G,/ A,2 B,2 C2 | D2 B,2 F,2 G,4 ^G,2 | %4
 A,6- A,6- | A,2 DC D2 B,4 ^A,2 | B,,F,B,D CEDF EDCB, | EB,E,D, C,B,,A,,^G,, F,,E,,F,,G,, | %8
 A,,E,A,C B,DCE DCB,A, | z2 D,2 D2- D2 C4- | CCB,A, ^G,A, G,2 E,2 z A, | %11
 B,/4A,/4^G,/A, D2 C2 B,2 A,2 G,2 | A,,2 B,4 A,2 B,2 C2 | D,2 E4 D6- | D2 C4- C2 B,4- | %15
 B,2 ^G,2 B,2 A,4 G,2 | z2 C,2 E,2 A,4 z z | z2 D,2 E,2 F,2 G,2 E,2 | %18
 [D,F,]3 D,/F,/ G,D,/G,/ A,2 B,2 C2 | D2 B,2 F,2 G,4 ^G,2 | A,6- A,6- | A,2 DC D2 B,4 ^A,2 | %22
 B,,F,B,D CEDF EDCB, | EB,E,D, C,B,,A,,^G,, F,,E,,F,,G,, | A,,E,A,C B,DCE DCB,A, | %25
 z2 D,2 D2- D2 C4- | CCB,A, ^G,A, G,2 E,2 z A, | B,/4A,/4^G,/A, D2 C2 B,2 A,2 G,2 | %28
 A,,2 B,4 A,2 B,2 C2 | D,2 E4 D6- | D2 C4- C2 B,4- | B,2 ^G,2 B,2 A,4 G,2 | z2 C,2 E,2 A,4 z2 | %33
 z2 C,2 E,2 G,F, A,G,F,E, | F,3 A,/F,/ D,F,/D,/ B,,2{B,,} =C,3 A,, | %35
 B,,D,G,F, G,B,/G,/ E,G,/E,/ =C2 A,2 | B,3 A,/G,/ A,G,/F,/ G,4 ^G,2 | A,3 F, G,E, F,6 | %38
 G,-G,-G,E, F,D, E,6 | F,3 A, F,E, ^D,6 | E,2 F,2 G,2 =C,2 A,,2 B,,2 | E,3 E,/G,/ B,G,/B,/ E4 z2 | %42
 z C,/E,/ A,E,/A,/ CA,/C/ D4 z2 | z B,,/D,/ G,D,/G,/ B,G,/B,/ C z z2 z C/A,/ | %44
 F,A,/F,/ D,F,/D,/ B,,D,/B,,/ G,,2 E,2 D,2 | A,,C,E,G, F,E,D,A, D,=C,B,,A,, | %46
 G,,B,,D,F, E,D,C,G, C,B,,A,,G,, | F,,F,B,,A,, G,,F,,E,,E, A,,G,,F,,E,, | %48
 D,,A,,D,F, E,G,F,A, G,F,E,D, | z2 G,,2 G,2- G,2 F,4- | F,F,E,D, C,D, C,2 A,,2 z D, | %51
 E,/4D,/4C,/D, G,2 F,2 E,2 D,2 C,2 | D,,2 E,4 D,2 E,2 F,2 | G,,2 A,4 G,6- | G,2 F,4- F,2 E,4- | %55
 E,2 C,2 E,2 D,4 G,2 | F,6 F,4 z z | z2 C,2 E,2 G,F, A,G,F,E, | %58
 F,3 A,/F,/ D,F,/D,/ B,,2{B,,} =C,3 A,, | B,,D,G,F, G,B,/G,/ E,G,/E,/ =C2 A,2 | %60
 B,3 A,/G,/ A,G,/F,/ G,4 ^G,2 | A,3 F, G,E, F,6 | G,-G,-G,E, F,D, E,6 | F,3 A, F,E, ^D,6 | %64
 E,2 F,2 G,2 =C,2 A,,2 B,,2 | E,3 E,/G,/ B,G,/B,/ E4 z2 | z C,/E,/ A,E,/A,/ CA,/C/ D4 z2 | %67
 z B,,/D,/ G,D,/G,/ B,G,/B,/ C z z2 z C/A,/ | F,A,/F,/ D,F,/D,/ B,,D,/B,,/ G,,2 E,2 D,2 | %69
 A,,C,E,G, F,E,D,A, D,=C,B,,A,, | G,,B,,D,F, E,D,C,G, C,B,,A,,G,, | %71
 F,,F,B,,A,, G,,F,,E,,E, A,,G,,F,,E,, | D,,A,,D,F, E,G,F,A, G,F,E,D, | z2 G,,2 G,2- G,2 F,4- | %74
 F,F,E,D, C,D, C,2 A,,2 z D, | E,/4D,/4C,/D, G,2 F,2 E,2 D,2 C,2 | D,,2 E,4 D,2 E,2 F,2 | %77
 G,,2 A,4 G,6- | G,2 F,4- F,2 E,4- | E,2 C,2 E,2 D,4 G,2 | F,6 F,4 z2 |] %81
V:3
 x | D,,6 z2 z4 | x12 | x12 | z2 A,,2 B,,2 C,2 D,C,B,,A,, | D,6 G,2 E,2 F,2 | x12 | x12 | x12 | %9
 x12 | z6 z2 z2 F,2 | D,6 D,2 C,2 B,,2 | A,4 ^G,2 =G,2 F,2 E,2 | D4 C4 B,2 A,2 | %14
 ^G,2 A,2 G,2 F,2 G,2 A,2 | ^G,2 E,2 D,2 C,2 D,2 E,2 | A,,6- A,,4 z z | D,,6 z2 z4 | x12 | x12 | %20
 z2 A,,2 B,,2 C,2 D,C,B,,A,, | D,6 G,2 E,2 F,2 | x12 | x12 | x12 | x12 | z6 z2 z2 F,2 | %27
 D,6 D,2 C,2 B,,2 | A,4 ^G,2 =G,2 F,2 E,2 | D4 C4 B,2 A,2 | ^G,2 A,2 G,2 F,2 G,2 A,2 | %31
 ^G,2 E,2 D,2 C,2 D,2 E,2 | A,,6- A,,4 x2 | A,,6 z6 | x12 | x12 | x12 | x12 | x12 | x12 | x12 | %41
 E,,3 z z8 | x12 | x12 | x12 | x12 | x12 | x12 | x12 | x12 | z6 z2 z2 B,,2 | G,,6- G,,2 F,,2 E,,2 | %52
 D,4 C,2 =C,2 B,,2 A,,2 | G,4 F,4 E,2 D,2 | C,2 D,2 C,2 B,,2 C,2 D,2 | x12 | D,4 A,,2 D,4 z z | %57
 A,,6 z6 | x12 | x12 | x12 | x12 | x12 | x12 | x12 | E,,3 z z8 | x12 | x12 | x12 | x12 | x12 | %71
 x12 | x12 | x12 | z6 z2 z2 B,,2 | G,,6- G,,2 F,,2 E,,2 | D,4 C,2 =C,2 B,,2 A,,2 | %77
 G,4 F,4 E,2 D,2 | C,2 D,2 C,2 B,,2 C,2 D,2 | x12 | D,4 A,,2 D,4 x2 |] %81
V:4
 x | x12 | D4 B2 c2 d2 A2- | A2[I:staff +1] D4- D2 B,4 | x12 | x12 | x12 | x12 | x12 | %9
 D4[I:staff -1] F2 ^G2 z2 E2 | FF G/4F/4E/F B2 EF ^GE A2 | F6 z2 z4 | x12 | x12 | x12 | x12 | %16
 z6 [CE]4 z z | x12 | D4 B2 c2 d2 A2- | A2[I:staff +1] D4- D2 B,4 | x12 | x12 | x12 | x12 | x12 | %25
 D4[I:staff -1] F2 ^G2 z2 E2 | FF G/4F/4E/F B2 EF ^GE A2 | F6 z2 z4 | x12 | x12 | x12 | x12 | %32
 z6 [CE]4 x2 | x12 | z A [FA]4 z6 | x12 | z B F4 z2[I:staff +1] B,2 E2- | E=C E4- E2 A,2 D2- | %38
 DB, D6 G,2 =C2- | CA, =C4- C2 F,2 B,2- | B,2 A,2 B,2 E,2 A,2 F,2 | %41
[I:staff -1] z B G4 z d/B/ GB/G/EG/E/ | A6- Ad/A/ FA/F/ DF/D/ | G6- GA,/C/ EC/E/ AE/A/ | %44
 c z z2 z4[I:staff +1] G,2 F,2 | E,[I:staff -1] z z2 z8 | x12 | x12 | x12 | %49
[I:staff +1] G,4 B,2 C2[I:staff -1] z2[I:staff +1] A,2 | %50
 B,[I:staff -1]B, C/4B,/4A,/B, E2 A,B, CA, D2 | B,2 z2 z8 | x12 | x12 | x12 | x12 | A,6 A,4 z z | %57
 x12 | z A [FA]4 z6 | x12 | z B F4 z2[I:staff +1] B,2 E2- | E=C E4- E2 A,2 D2- | DB, D6 G,2 =C2- | %63
 CA, =C4- C2 F,2 B,2- | B,2 A,2 B,2 E,2 A,2 F,2 |[I:staff -1] z B G4 z d/B/ GB/G/EG/E/ | %66
 A6- Ad/A/ FA/F/ DF/D/ | G6- GA,/C/ EC/E/ AE/A/ | c z z2 z4[I:staff +1] G,2 F,2 | %69
 E,[I:staff -1] z z2 z8 | x12 | x12 | x12 |[I:staff +1] G,4 B,2 C2[I:staff -1] z2[I:staff +1] A,2 | %74
 B,[I:staff -1]B, C/4B,/4A,/B, E2 A,B, CA, D2 | B,2 z2 z8 | x12 | x12 | x12 | x12 | A,6 A,4 x2 |] %81
V:5
 x | x12 | x12 | x12 | x12 | x12 | x12 | x12 | x12 | x12 | x12 | x12 | x12 | x12 | x12 | x12 | %16
 x12 | x12 | x12 | x12 | x12 | x12 | x12 | x12 | x12 | x12 | x12 | x12 | x12 | x12 | x12 | x12 | %32
 x12 | x12 | z2 z D3 z6 | x12 | x12 | x12 | x12 | x12 | x12 | x12 | x12 | x12 | x12 | x12 | x12 | %47
 x12 | x12 | x12 | x12 | x12 | x12 | x12 | x12 | x12 | x12 | x12 | z2 z D3 z6 | x12 | x12 | x12 | %62
 x12 | x12 | x12 | x12 | x12 | x12 | x12 | x12 | x12 | x12 | x12 | x12 | x12 | x12 | x12 | x12 | %78
 x12 | x12 | x12 |] %81
V:6
 x | x12 | x12 | x12 | x12 | x12 | x12 | x12 | x12 | x12 | x12 | x12 | x12 | x12 | x12 | x12 | %16
 x12 | x12 | x12 | x12 | x12 | x12 | x12 | x12 | x12 | x12 | x12 | x12 | x12 | x12 | x12 | x12 | %32
 x12 | x12 | x12 | x12 | x12 | x12 | x12 | x12 | x12 | x12 | x12 | x12 | x12 | x12 | x12 | x12 | %48
 x12 | x12 | x12 | x12 | x12 | x12 | x12 | x12 | z2 D,,8 z z | x12 | x12 | x12 | x12 | x12 | x12 | %63
 x12 | x12 | x12 | x12 | x12 | x12 | x12 | x12 | x12 | x12 | x12 | x12 | x12 | x12 | x12 | x12 | %79
 x12 | z2 D,,8 x2 |] %81

